Papirus/24x24/apps/gwenview.svg

<!-- Created with Inkscape (http://www.inkscape.org/) -->
<svg width="24" height="24" version="1.1" viewBox="0 0 24 24" xmlns="http://www.w3.org/2000/svg">
 <path d="m12 4.5c-5.522829 0-9.563475 4.383577-10 8 0.436525 3.616423 4.47717 8 10 8 5.522828 0 9.563474-4.383577 10-8-0.436526-3.616423-4.477171-8-10-8z" style="opacity:.2"/>
 <path d="m12 4c-5.522829 0-9.5634748 4.383577-10 8 0.4365253 3.616423 4.47717 8 10 8 5.522828 0 9.563474-4.383577 10-8-0.436526-3.616423-4.477171-8-10-8z" style="fill:#d35297"/>
 <circle cx="12" cy="12.5" r="6" style="opacity:.1"/>
 <path d="M 12,4 C 6.4771825,4 2.4365244,8.3835846 2,12 2.00996,12.08251 2.022944,12.16464 2.037109,12.248047 2.6246729,8.6830646 6.6043749,4.5 12,4.5 c 5.395625,0 9.375326,4.1830646 9.962891,7.748047 C 21.977056,12.16464 21.990041,12.08251 22,12 21.563474,8.3835846 17.522817,4 12,4 Z" style="fill:#ffffff;opacity:.1"/>
 <circle cx="12" cy="12" r="6" style="fill:#e4e4e4"/>
 <path d="m14 8c-0.552285 0-1 0.447715-1 1s0.447715 1 1 1 1-0.447715 1-1-0.447715-1-1-1zm-4 2-2.576172 4c0.794313 1.820005 2.590386 2.997456 4.576172 3 1.985786-0.0025 3.781859-1.179995 4.576172-3h-1.576172l-1.5-2-1.5 1.5z" style="opacity:.2"/>
</svg>

<svg xmlns="http://www.w3.org/2000/svg" width="24" height="24" version="1.1">
 <path style="opacity:0.2" d="M 12,4.5 C 6.477,4.5 2.437,8.884 2,12.5 2.437,16.116 6.477,20.5 12,20.5 17.523,20.5 21.563,16.116 22,12.5 21.563,8.884 17.523,4.5 12,4.5 Z"/>
 <path style="fill:#d35297" d="m12 4c-5.523 0-9.563 4.384-10 8 0.437 3.616 4.477 8 10 8 5.523 0 9.563-4.384 10-8-0.437-3.616-4.477-8-10-8z"/>
 <circle style="opacity:0.1" cx="12" cy="12.5" r="6"/>
 <circle style="fill:#e4e4e4" cx="12" cy="12" r="6"/>
 <path style="fill:#b6b6b6" d="M 10,10 7.42,14 C 8.22,15.82 10,17 12,17 14,17 15.78,15.82 16.58,14 H 15 L 13.5,12 12,13.5 Z M 15,9 A 1,1 0 0 1 14,10 1,1 0 0 1 13,9 1,1 0 0 1 14,8 1,1 0 0 1 15,9 Z"/>
 <path style="fill:#ffffff;opacity:0.1" d="M 12 4 C 6.477 4 2.437 8.384 2 12 C 2.01 12.083 2.0234 12.167 2.0371 12.25 C 2.624 8.685 6.6032 4.5 12 4.5 C 17.397 4.5 21.376 8.685 21.963 12.25 C 21.977 12.167 21.99 12.083 22 12 C 21.563 8.384 17.523 4 12 4 z"/>
</svg>
